X: 11685
T: Eily Buckley's Fancy
R: polka
M: 2/4
K: Dmajor
|:f2 ge|fd de/f/|gB ed|c/B/A ce|
fa ge|fd fa/f/|ed c/d/e|1 d2 zd:|2 d2 dB||
|:A3/2B/ AG|FA de/f/|gB ed|cA GE|
F/G/A BA|FA de/f/|ge ce|1 d2 dB:|2 d2 de||

